X: 40948
T: Trip To Cheltenham, The
R: jig
M: 6/8
K: Gmajor
|:GA|"G"B3/2A/G "D"ABA|"G"G3-GBc|d2 B dgf|"C"e3- e2 "D"f|"G"g2 g "Em"g3/2f/e|
"D"d2 c "G"B3/2A/G|1 "Am7"ABc "G"BAG|"C"E3-"D7"E:|2 "Am7"ABc "D"B2 A|"G"G3 GFG||
|:"D"A2 D D2 A|"G"B2 A Ggf|"C"ece "G"d2 B|"D"A3- A3|
AcA "G"BdB|"C"cec "G"dgf|"Em7"e3/2f/g "D7"fef|"G"g3- g3:|

